X: 1173
T: Lord Kilmaurs Reel
%R: reel, air
B: Niel Gow & Sons "Complete Repository" v.1 p.17 #3
Z: 2021 John Chambers <jc:trillian.mit.edu>
M: C|
L: 1/8
K: Em
% - - - - - - - - - -
% Voice 1 formatted for proofreading.
V: 1 staves=2
|:\
E2EF (DE)FD | E/E/E TE>F GAB^c | d>edF DEFD | e>Bd>G TF2E2 :: ~e3f defd |
e/e/e (.e.b) agfe | (g/a/b) fa defd | e>Bd>G TF2E2 ::\
EeGe (DEF).D | .E.e.G.e .E.e.G.e | faef (DE).F.D |
e>Bd>G TF2E2 :: ge-ef defd | ge-e.b agfe | g>bf>a Td>efd | e>B d>G TF2E2 :|
% - - - - - - - - - -
% Voice 2 preserves the book's staff layout.
V: 2 clef=bass middle=d
|:\
e2e2 d2d2 | e2e2 e2e2 | f2a2 d2d2 | e2B2 E2E2 ::\
[e2e'2][e2e'2] [d2d'2][d2d'2] |
[e2e'2][e2e'2] [e2e'2][e2e'2] |\
[B2b2][B2b2] [d2d'2][d2d'2] | [e2e'2][B2b2] [E2e2][E2e2] ::\
e2e2 d2d2 | e2e2 e2e2 | f2e2 d2d2 |
e2B2 E2E2 ::\
[e2e'2][e2e'2] [d2d'2][d2d'2] | [e2e'2][e2e'2] [e2e'2][e2e'2] |\
[B2b2][B2b2] [d2d'2][d2d'2] | [e2e'2][B2b2] [E2e2][E2e2] :|


